Numix/16/status/indicator-keyboard-Ro-3.svg

<?xml version="1.0" encoding="UTF-8" standalone="no"?>
<svg
   xmlns:dc="http://purl.org/dc/elements/1.1/"
   xmlns:cc="http://creativecommons.org/ns#"
   xmlns:rdf="http://www.w3.org/1999/02/22-rdf-syntax-ns#"
   xmlns:svg="http://www.w3.org/2000/svg"
   xmlns="http://www.w3.org/2000/svg"
   xmlns:sodipodi="http://sodipodi.sourceforge.net/DTD/sodipodi-0.dtd"
   xmlns:inkscape="http://www.inkscape.org/namespaces/inkscape"
   viewBox="0 0 16 16"
   id="svg2"
   version="1.1"
   inkscape:version="0.91 r13725"
   sodipodi:docname="indicator-keyboard-Ro-3.svg">
  <metadata
     id="metadata14">
    <rdf:RDF>
      <cc:Work
         rdf:about="">
        <dc:format>image/svg+xml</dc:format>
        <dc:type
           rdf:resource="http://purl.org/dc/dcmitype/StillImage" />
      </cc:Work>
    </rdf:RDF>
  </metadata>
  <defs
     id="defs12" />
  <sodipodi:namedview
     pagecolor="#ffffff"
     bordercolor="#666666"
     borderopacity="1"
     objecttolerance="10"
     gridtolerance="10"
     guidetolerance="10"
     inkscape:pageopacity="0"
     inkscape:pageshadow="2"
     inkscape:window-width="640"
     inkscape:window-height="480"
     id="namedview10"
     showgrid="false"
     inkscape:zoom="14.75"
     inkscape:cx="8"
     inkscape:cy="8"
     inkscape:window-x="65"
     inkscape:window-y="24"
     inkscape:window-maximized="0"
     inkscape:current-layer="svg2" />
  <path
     style="fill:#ececec;fill-opacity:1"
     d="M 1.5996094 0 C 0.71320937 2.9605947e-16 0 0.71320937 0 1.5996094 L 0 14.400391 C 2.9605947e-16 15.286791 0.71320937 16 1.5996094 16 L 14.400391 16 C 15.286791 16 16 15.286791 16 14.400391 L 16 1.5996094 C 16 0.71320937 15.286791 0 14.400391 0 L 1.5996094 0 z M 3.1640625 4.8046875 C 4.0220625 4.8046875 4.6676094 4.9670156 5.0996094 5.2910156 C 5.5376094 5.6150156 5.7558594 6.0944688 5.7558594 6.7304688 C 5.7558594 7.1984687 5.6327187 7.5678906 5.3867188 7.8378906 C 5.1407188 8.1078906 4.8180156 8.3038281 4.4160156 8.4238281 C 4.5120156 8.5438281 4.6351563 8.7042031 4.7851562 8.9082031 C 4.9411562 9.1122031 5.0997187 9.3379844 5.2617188 9.5839844 C 5.4237188 9.8239844 5.5822812 10.075844 5.7382812 10.339844 C 5.8942813 10.603844 6.0267656 10.855703 6.1347656 11.095703 L 5.4785156 11.095703 C 5.3525156 10.855703 5.2144531 10.616953 5.0644531 10.376953 C 4.9204531 10.136953 4.7692812 9.9055939 4.6132812 9.6835938 C 4.4632812 9.4555937 4.315875 9.2447344 4.171875 9.0527344 L 3.7949219 8.5488281 C 3.6029219 8.5668281 3.41075 8.5761719 3.21875 8.5761719 L 2.2109375 8.5761719 L 2.2109375 11.095703 L 1.5996094 11.095703 L 1.5996094 4.9765625 C 1.8156094 4.9165625 2.0674688 4.8736094 2.3554688 4.8496094 C 2.6494687 4.8196094 2.9180625 4.8046875 3.1640625 4.8046875 z M 3.2363281 5.3359375 C 3.0083281 5.3359375 2.8068125 5.3452813 2.6328125 5.3632812 C 2.4648125 5.3752812 2.3249375 5.3864375 2.2109375 5.3984375 L 2.2109375 8.0546875 L 3.0566406 8.0546875 C 3.3386406 8.0546875 3.6054219 8.0415781 3.8574219 8.0175781 C 4.1094219 7.9875781 4.329625 7.9278906 4.515625 7.8378906 C 4.701625 7.7418906 4.8470781 7.6075938 4.9550781 7.4335938 C 5.0630781 7.2595938 5.1171875 7.0226562 5.1171875 6.7226562 C 5.1171875 6.4466563 5.0630781 6.2171094 4.9550781 6.0371094 C 4.8470781 5.8571094 4.7072031 5.7172344 4.5332031 5.6152344 C 4.3592031 5.5072344 4.1576875 5.4344375 3.9296875 5.3984375 C 3.7076875 5.3564375 3.4763281 5.3359375 3.2363281 5.3359375 z M 8.9628906 6.3359375 C 9.2748906 6.3359375 9.5584062 6.395625 9.8164062 6.515625 C 10.074406 6.629625 10.296422 6.7937656 10.482422 7.0097656 C 10.674422 7.2197656 10.821828 7.4753906 10.923828 7.7753906 C 11.031828 8.0753906 11.085938 8.4074375 11.085938 8.7734375 C 11.085938 9.1394375 11.031828 9.4734375 10.923828 9.7734375 C 10.821828 10.073438 10.674422 10.327109 10.482422 10.537109 C 10.296422 10.747109 10.074406 10.913203 9.8164062 11.033203 C 9.5584062 11.147203 9.2748906 11.203125 8.9628906 11.203125 C 8.6508906 11.203125 8.3654219 11.147203 8.1074219 11.033203 C 7.8494219 10.913203 7.6236406 10.747109 7.4316406 10.537109 C 7.2456406 10.327109 7.1001875 10.073438 6.9921875 9.7734375 C 6.8901875 9.4734375 6.8378906 9.1394375 6.8378906 8.7734375 C 6.8378906 8.4074375 6.8901875 8.0753906 6.9921875 7.7753906 C 7.1001875 7.4753906 7.2456406 7.2197656 7.4316406 7.0097656 C 7.6236406 6.7937656 7.8494219 6.629625 8.1074219 6.515625 C 8.3654219 6.395625 8.6508906 6.3359375 8.9628906 6.3359375 z M 8.9628906 6.8652344 C 8.5008906 6.8652344 8.1352344 7.0406719 7.8652344 7.3886719 C 7.5952344 7.7306719 7.4589844 8.1914375 7.4589844 8.7734375 C 7.4589844 9.3554375 7.5952344 9.818156 7.8652344 10.160156 C 8.1352344 10.502156 8.5008906 10.673828 8.9628906 10.673828 C 9.4248906 10.673828 9.7905471 10.502156 10.060547 10.160156 C 10.330547 9.818156 10.464844 9.3554375 10.464844 8.7734375 C 10.464844 8.1914375 10.330547 7.7306719 10.060547 7.3886719 C 9.7905471 7.0406719 9.4248906 6.8652344 8.9628906 6.8652344 z M 13.033203 8.7539062 C 13.236003 8.7539062 13.408434 8.7793781 13.552734 8.8300781 C 13.700934 8.8807781 13.824375 8.953275 13.921875 9.046875 C 14.019375 9.136575 14.091872 9.2463 14.138672 9.375 C 14.185472 9.4997999 14.208984 9.6350031 14.208984 9.7832031 C 14.208984 10.021103 14.144325 10.217041 14.015625 10.369141 C 13.890825 10.517341 13.728197 10.625106 13.529297 10.691406 C 13.638497 10.718706 13.744303 10.759859 13.845703 10.818359 C 13.951003 10.872959 14.045053 10.945456 14.126953 11.035156 C 14.208853 11.120956 14.275472 11.226762 14.326172 11.351562 C 14.376872 11.476363 14.400391 11.623316 14.400391 11.791016 C 14.400391 11.962616 14.370994 12.119372 14.308594 12.263672 C 14.250094 12.407972 14.159962 12.535331 14.039062 12.644531 C 13.922062 12.749831 13.771191 12.834084 13.587891 12.896484 C 13.404591 12.954984 13.191012 12.984375 12.945312 12.984375 C 12.816612 12.984375 12.697091 12.974578 12.587891 12.955078 C 12.482591 12.939478 12.388541 12.919884 12.306641 12.896484 C 12.224741 12.873084 12.154203 12.849572 12.095703 12.826172 C 12.041103 12.802772 11.999956 12.783178 11.972656 12.767578 L 12.072266 12.427734 C 12.095666 12.443334 12.134853 12.462928 12.189453 12.486328 C 12.244053 12.509728 12.308712 12.533241 12.382812 12.556641 C 12.460812 12.576141 12.547025 12.593775 12.640625 12.609375 C 12.738125 12.624975 12.843931 12.632813 12.957031 12.632812 C 13.327531 12.632812 13.592053 12.556397 13.751953 12.404297 C 13.911853 12.248297 13.992187 12.040597 13.992188 11.779297 C 13.992188 11.607697 13.958878 11.464662 13.892578 11.351562 C 13.830178 11.238462 13.742006 11.148331 13.628906 11.082031 C 13.519706 11.011831 13.390387 10.962847 13.242188 10.935547 C 13.097888 10.904347 12.94505 10.888672 12.78125 10.888672 L 12.722656 10.888672 L 12.722656 10.574219 L 12.857422 10.574219 C 12.962722 10.574219 13.068534 10.564422 13.177734 10.544922 C 13.290834 10.521522 13.392722 10.480375 13.482422 10.421875 C 13.576022 10.363375 13.652437 10.285 13.710938 10.1875 C 13.773338 10.09 13.804688 9.9646001 13.804688 9.8125 C 13.804688 9.6838 13.783134 9.5760281 13.740234 9.4863281 C 13.697334 9.3927281 13.638553 9.3182719 13.564453 9.2636719 C 13.494253 9.2090719 13.41 9.1698844 13.3125 9.1464844 C 13.2189 9.1191844 13.120925 9.1054687 13.015625 9.1054688 C 12.805025 9.1054688 12.640437 9.1348594 12.523438 9.1933594 C 12.406438 9.2518594 12.310428 9.3067219 12.236328 9.3574219 L 12.072266 9.0585938 C 12.111266 9.0312937 12.16025 8.9999438 12.21875 8.9648438 C 12.28115 8.9297438 12.353647 8.8964344 12.435547 8.8652344 C 12.517446 8.8340344 12.607578 8.8085625 12.705078 8.7890625 C 12.806478 8.7656625 12.916203 8.7539062 13.033203 8.7539062 z "
     id="path4" />
</svg>

<svg xmlns="http://www.w3.org/2000/svg" viewBox="0 0 16 16">
 <path d="m 1.6 0 c -0.886 0 -1.6 0.713 -1.6 1.6 l 0 12.801 c 0 0.886 0.713 1.6 1.6 1.6 l 12.801 0 c 0.886 0 1.6 -0.713 1.6 -1.6 l 0 -12.801 c 0 -0.886 -0.713 -1.6 -1.6 -1.6 l -12.801 0 z m 1.564 4.805 c 0.858 0 1.504 0.162 1.936 0.486 c 0.438 0.324 0.656 0.803 0.656 1.439 c 0 0.468 -0.123 0.837 -0.369 1.107 c -0.246 0.27 -0.569 0.466 -0.971 0.586 c 0.096 0.12 0.219 0.28 0.369 0.484 c 0.156 0.204 0.315 0.43 0.477 0.676 c 0.162 0.24 0.321 0.492 0.477 0.756 c 0.156 0.264 0.288 0.516 0.396 0.756 l -0.656 0 c -0.126 -0.24 -0.264 -0.479 -0.414 -0.719 c -0.144 -0.24 -0.295 -0.471 -0.451 -0.693 c -0.15 -0.228 -0.297 -0.439 -0.441 -0.631 l -0.377 -0.504 c -0.192 0.018 -0.384 0.027 -0.576 0.027 l -1.01 0 l 0 2.52 l -0.611 0 l 0 -6.119 c 0.216 -0.06 0.468 -0.103 0.756 -0.127 c 0.294 -0.03 0.563 -0.045 0.809 -0.045 z m 0.072 0.531 c -0.228 0 -0.43 0.009 -0.604 0.027 c -0.168 0.012 -0.308 0.023 -0.422 0.035 l 0 2.656 l 0.846 0 c 0.282 0 0.549 -0.013 0.801 -0.037 c 0.252 -0.03 0.472 -0.09 0.658 -0.18 c 0.186 -0.096 0.331 -0.23 0.439 -0.404 c 0.108 -0.174 0.162 -0.411 0.162 -0.711 c 0 -0.276 -0.054 -0.506 -0.162 -0.686 c -0.108 -0.18 -0.248 -0.32 -0.422 -0.422 c -0.174 -0.108 -0.376 -0.181 -0.604 -0.217 c -0.222 -0.042 -0.453 -0.063 -0.693 -0.063 z m 5.727 1 c 0.312 0 0.596 0.06 0.854 0.18 c 0.258 0.114 0.48 0.278 0.666 0.494 c 0.192 0.21 0.339 0.466 0.441 0.766 c 0.108 0.3 0.162 0.632 0.162 0.998 c 0 0.366 -0.054 0.7 -0.162 1 c -0.102 0.3 -0.249 0.554 -0.441 0.764 c -0.186 0.21 -0.408 0.376 -0.666 0.496 c -0.258 0.114 -0.542 0.17 -0.854 0.17 c -0.312 0 -0.597 -0.056 -0.855 -0.17 c -0.258 -0.12 -0.484 -0.286 -0.676 -0.496 c -0.186 -0.21 -0.331 -0.464 -0.439 -0.764 c -0.102 -0.3 -0.154 -0.634 -0.154 -1 c 0 -0.366 0.052 -0.698 0.154 -0.998 c 0.108 -0.3 0.253 -0.556 0.439 -0.766 c 0.192 -0.216 0.418 -0.38 0.676 -0.494 c 0.258 -0.12 0.543 -0.18 0.855 -0.18 z m 0 0.529 c -0.462 0 -0.828 0.175 -1.098 0.523 c -0.27 0.342 -0.406 0.803 -0.406 1.385 c 0 0.582 0.136 1.045 0.406 1.387 c 0.27 0.342 0.636 0.514 1.098 0.514 c 0.462 0 0.828 -0.172 1.098 -0.514 c 0.27 -0.342 0.404 -0.805 0.404 -1.387 c 0 -0.582 -0.134 -1.043 -0.404 -1.385 c -0.27 -0.348 -0.636 -0.523 -1.098 -0.523 z m 4.07 1.889 c 0.203 0 0.375 0.025 0.52 0.076 c 0.148 0.051 0.272 0.123 0.369 0.217 c 0.098 0.09 0.17 0.199 0.217 0.328 c 0.047 0.125 0.07 0.26 0.07 0.408 c 0 0.238 -0.065 0.434 -0.193 0.586 c -0.125 0.148 -0.287 0.256 -0.486 0.322 c 0.109 0.027 0.215 0.068 0.316 0.127 c 0.105 0.055 0.199 0.127 0.281 0.217 c 0.082 0.086 0.149 0.192 0.199 0.316 c 0.051 0.125 0.074 0.272 0.074 0.439 c 0 0.172 -0.029 0.328 -0.092 0.473 c -0.058 0.144 -0.149 0.272 -0.27 0.381 c -0.117 0.105 -0.268 0.19 -0.451 0.252 c -0.183 0.059 -0.397 0.088 -0.643 0.088 c -0.129 0 -0.248 -0.01 -0.357 -0.029 c -0.105 -0.016 -0.199 -0.035 -0.281 -0.059 c -0.082 -0.023 -0.152 -0.047 -0.211 -0.07 c -0.055 -0.023 -0.096 -0.043 -0.123 -0.059 l 0.1 -0.34 c 0.023 0.016 0.063 0.035 0.117 0.059 c 0.055 0.023 0.119 0.047 0.193 0.07 c 0.078 0.019 0.164 0.037 0.258 0.053 c 0.098 0.016 0.203 0.023 0.316 0.023 c 0.37 0 0.635 -0.076 0.795 -0.229 c 0.16 -0.156 0.24 -0.364 0.24 -0.625 c 0 -0.172 -0.033 -0.315 -0.1 -0.428 c -0.062 -0.113 -0.151 -0.203 -0.264 -0.27 c -0.109 -0.07 -0.239 -0.119 -0.387 -0.146 c -0.144 -0.031 -0.297 -0.047 -0.461 -0.047 l -0.059 0 l 0 -0.314 l 0.135 0 c 0.105 0 0.211 -0.01 0.32 -0.029 c 0.113 -0.023 0.215 -0.065 0.305 -0.123 c 0.094 -0.059 0.17 -0.137 0.229 -0.234 c 0.062 -0.098 0.094 -0.223 0.094 -0.375 c 0 -0.129 -0.022 -0.236 -0.064 -0.326 c -0.043 -0.094 -0.102 -0.168 -0.176 -0.223 c -0.07 -0.055 -0.154 -0.094 -0.252 -0.117 c -0.094 -0.027 -0.192 -0.041 -0.297 -0.041 c -0.211 0 -0.375 0.029 -0.492 0.088 c -0.117 0.059 -0.213 0.113 -0.287 0.164 l -0.164 -0.299 c 0.039 -0.027 0.088 -0.059 0.146 -0.094 c 0.062 -0.035 0.135 -0.068 0.217 -0.1 c 0.082 -0.031 0.172 -0.057 0.27 -0.076 c 0.101 -0.023 0.211 -0.035 0.328 -0.035 z" style="fill:#ececec;fill-opacity:1"/>
</svg>
